X:3585
T:Crowley's Reel
T:Miss Patterson's Slipper
R:reel
D:The Gathering (Matt Molloy)
D:Paddy Glackin: Ceol ar an bhFidil le Paddy Glackin.
Z:alf.warnock@nrc.ca
M:C|
L:1/8
Q:1/4=200
K:Edor
|:B,E~E2 B,EGE|(3FED B,D A,DFD|B,E~E2 B,EGB|AFdA FEE2:|
|:ebgb fbeg|fd~d2 bdad|1 ebgb ~f2e|dBAF FEE2:|
|2 EFGA ~B3d| AFDE FEE2:|


